X: 14
T:Blarney Pilgrim
N: page 4
N: hexatonic
N: matches 158
S:Alistair Anderson, via EF
R: Jig
M:6/8
K:Dmix
|:"G"D2D DEG|"D"A2A ABc|"G"BAG AGE|"C"GEA GED|\
"G"D2D DEG|"D"A2A ABc|"G"BAG AGE|"C"GED "G"D3::
"G"d2d dBG|"C"AGA BGE|"G"d2d dBG|"D"AGA GBd|\
"G"g2e dBG|"Am"AGA BGE|"C"B2G AGE|"D"DED "G"D2D::
"D"ADD BDD|ADD ABc|"G"BAG AGE|"Am"GEA GED|\
"D"ADD BDD|ADD ABc|"G"BAG AGE|"C"GED "G"D3:|
